swiss/communes/0068.svg

<?xml version="1.0" encoding="UTF-8" standalone="no"?>
<!-- Created with Inkscape (http://www.inkscape.org/) -->
<svg
   xmlns:svg="http://www.w3.org/2000/svg"
   xmlns="http://www.w3.org/2000/svg"
   version="1.0"
   width="217.99518"
   height="255.3474"
   id="svg2780">
  <defs
     id="defs2782" />
  <g
     transform="translate(-14.62575,-806.78459)"
     id="layer1">
    <path
       d="M 15.62575,807.7846 L 19.552932,972.75497 C 22.358054,1090.591 224.88862,1090.591 227.69376,972.75497 L 231.62093,807.7846 L 15.62575,807.7846 z"
       id="path3282"
       style="fill:#2969c4;fill-opacity:1;fill-rule:evenodd;stroke:#000000;stroke-width:2;stroke-linecap:butt;stroke-miterlimit:4;stroke-dashoffset:0;stroke-opacity:1" />
    <path
       d="M 21.529589,894.36194 L 21.529589,919.04944 L 34.092088,906.48694 L 34.435838,906.48694 C 35.779086,925.87214 43.284487,943.56929 54.998338,957.64319 L 54.967088,957.67444 L 38.592088,961.20569 L 62.404588,985.04944 L 65.904589,968.67444 C 79.628746,980.35226 96.903219,987.98604 115.87334,989.70569 L 115.87334,989.76819 L 106.77959,1003.7994 L 140.46709,1003.7994 L 131.37334,989.76819 C 150.38383,988.24054 167.7283,980.79704 181.56084,969.26819 L 181.59209,969.29944 L 185.12334,985.67444 L 208.93584,961.86194 L 192.59209,958.36194 L 192.56084,958.33069 C 204.50839,944.27531 212.22017,926.52452 213.68584,907.01819 L 225.71709,919.04944 L 225.71709,894.36194 L 129.74834,894.36194 L 129.74834,906.48694 L 117.49834,906.48694 L 117.49834,894.36194 L 21.529589,894.36194 z M 51.467088,906.48694 L 106.15459,906.48694 L 67.092089,945.54944 C 58.390052,934.63624 52.729216,921.19868 51.467088,906.48694 z M 140.68584,906.48694 L 196.71709,906.48694 C 195.42697,921.52499 189.56239,935.25515 180.52959,946.29944 L 140.68584,906.48694 z M 115.87334,918.70569 L 115.87334,972.61194 C 101.58535,971.00617 88.537179,965.25891 77.967089,956.61194 L 115.87334,918.70569 z M 131.37334,919.11194 L 169.49834,957.20569 C 158.82527,965.71962 145.70526,971.31382 131.37334,972.73694 L 131.37334,919.11194 z"
       id="path2540"
       style="fill:#ffef39;fill-opacity:1;fill-rule:evenodd;stroke:#000000;stroke-width:1.00588694pt;stroke-linecap:butt;stroke-linejoin:miter;marker:none;marker-start:none;marker-mid:none;marker-end:none;stroke-miterlimit:4;stroke-dashoffset:0;stroke-opacity:1;visibility:visible;display:inline;overflow:visible;enable-background:accumulate" />
  </g>
</svg>

<svg xmlns="http://www.w3.org/2000/svg" version="1.0" width="217.995" height="255.347"><path d="m15.626 807.785 3.927 164.97c2.805 117.836 205.336 117.836 208.14 0l3.928-164.97H15.626z" style="fill:#2969c4;fill-opacity:1;fill-rule:evenodd;stroke:#000;stroke-width:2;stroke-linecap:butt;stroke-miterlimit:4;stroke-dashoffset:0;stroke-opacity:1" transform="translate(-14.626 -806.785)"/><path d="M21.53 894.362v24.687l12.562-12.562h.344c1.343 19.385 8.848 37.082 20.562 51.156l-.03.031-16.376 3.532 23.813 23.843 3.5-16.375c13.724 11.678 30.998 19.312 49.968 21.032v.062l-9.093 14.031h33.687l-9.094-14.03c19.01-1.528 36.355-8.972 50.188-20.5l.031.03 3.531 16.375 23.813-23.812-16.344-3.5-.031-.031c11.947-14.056 19.66-31.806 21.125-51.313l12.031 12.031v-24.687h-95.969v12.125h-12.25v-12.125H21.53zm29.937 12.125h54.688l-39.063 39.062c-8.702-10.913-14.363-24.35-15.625-39.062zm89.219 0h56.031c-1.29 15.038-7.155 28.768-16.187 39.812l-39.844-39.812zm-24.813 12.219v53.906c-14.288-1.606-27.336-7.353-37.906-16l37.906-37.906zm15.5.406 38.125 38.094c-10.673 8.514-23.793 14.108-38.125 15.53v-53.624z" style="fill:#ffef39;fill-opacity:1;fill-rule:evenodd;stroke:#000;stroke-width:1.00588694pt;stroke-linecap:butt;stroke-linejoin:miter;marker:none;marker-start:none;marker-mid:none;marker-end:none;stroke-miterlimit:4;stroke-dashoffset:0;stroke-opacity:1;visibility:visible;display:inline;overflow:visible;enable-background:accumulate" transform="translate(-14.626 -806.785)"/></svg>
